tools/download-figma-icons/icons/outlined-large/plant-leaf.svg

<svg width="64" height="64" viewBox="0 0 64 64" fill="none" xmlns="http://www.w3.org/2000/svg">
<path fill-rule="evenodd" clip-rule="evenodd" d="M58.3818 1.3094C58.3168 0.802404 57.9988 0.364405 57.5379 0.145406C57.0769 -0.0745929 56.5369 -0.042593 56.1029 0.225406C51.2599 3.23439 42.8899 5.86038 33.1389 7.42938C16.381 10.1254 6.74404 16.6303 5.27205 26.2423C3.67306 36.6763 9.54303 44.2002 11.924 46.7642C6.04505 55.4132 7.35704 62.4332 7.43104 62.7992C7.57604 63.5082 8.19904 63.9962 8.89704 63.9962C8.99404 63.9962 9.09304 63.9872 9.19203 63.9672C10.001 63.8062 10.528 63.0182 10.372 62.2072C10.297 61.8162 8.65404 52.4942 19.822 42.2732C20.696 41.4732 21.567 40.6933 22.438 39.9093L35.2789 36.9023C36.0859 36.7123 36.5869 35.9063 36.3979 35.0993C36.2089 34.2923 35.3999 33.7933 34.5959 33.9803L27.111 35.7333C27.237 35.6213 27.368 35.5033 27.494 35.3913C35.4559 28.3233 42.3319 22.2193 45.4069 17.2393C45.8419 16.5343 45.6229 15.6103 44.9189 15.1743C44.2129 14.7414 43.2899 14.9583 42.8539 15.6633C40.7809 19.0203 36.6429 23.1043 31.5389 27.7463V19.5473C31.5389 18.7193 30.867 18.0473 30.039 18.0473C29.21 18.0473 28.539 18.7193 28.539 19.5473V30.4473C27.549 31.3303 26.537 32.2303 25.503 33.1473C22.993 35.3753 20.398 37.6793 17.797 40.0603C16.235 41.4902 14.9 42.9102 13.76 44.3012C11.544 41.7472 6.92504 35.2553 8.23704 26.6973C9.82403 16.3393 22.914 12.1134 33.6149 10.3904C39.0019 9.52437 48.5579 7.58738 55.5689 3.96939C55.7879 9.08037 55.5419 22.0153 48.9049 34.9783C39.7259 52.9062 21.121 49.8982 20.337 49.7622C19.522 49.6182 18.742 50.1632 18.598 50.9792C18.454 51.7942 18.998 52.5732 19.814 52.7172C19.871 52.7272 21.4 52.9802 23.808 52.9802C30.522 52.9802 44.0649 51.0142 51.5749 36.3453C60.5058 18.9033 58.4728 2.0194 58.3818 1.3094Z" fill="black"/>
</svg>

<svg width="64" height="64" viewBox="0 0 64 64" fill="none" xmlns="http://www.w3.org/2000/svg"><path fill-rule="evenodd" clip-rule="evenodd" d="M58.382 1.31a1.5 1.5 0 0 0-2.28-1.085C51.26 3.235 42.89 5.86 33.14 7.43c-16.76 2.695-26.396 9.2-27.868 18.812C3.673 36.676 9.543 44.2 11.924 46.764c-5.879 8.65-4.567 15.67-4.493 16.035a1.497 1.497 0 0 0 1.761 1.168 1.505 1.505 0 0 0 1.18-1.76c-.075-.39-1.718-9.713 9.45-19.934.874-.8 1.745-1.58 2.616-2.364l12.84-3.007a1.5 1.5 0 0 0-.682-2.922l-7.485 1.753.383-.342c7.962-7.068 14.838-13.172 17.913-18.152a1.502 1.502 0 0 0-.488-2.065 1.503 1.503 0 0 0-2.065.49c-2.073 3.356-6.211 7.44-11.315 12.082v-8.199a1.5 1.5 0 0 0-3 0v10.9c-.99.883-2.002 1.783-3.036 2.7a672.404 672.404 0 0 0-7.706 6.913 40.967 40.967 0 0 0-4.037 4.241c-2.216-2.554-6.835-9.046-5.523-17.604C9.824 16.34 22.914 12.113 33.615 10.39c5.387-.866 14.943-2.803 21.954-6.42.219 5.11-.027 18.045-6.664 31.008-9.18 17.928-27.784 14.92-28.568 14.784a1.5 1.5 0 1 0-.523 2.955c.057.01 1.586.263 3.994.263 6.714 0 20.257-1.966 27.767-16.635 8.93-17.442 6.898-34.326 6.807-35.036Z" fill="currentColor"/></svg>
